X:1033
T:Bog in Lochan,
T:or Lady Grant's Reel.
M:C
L:1/8
Q:1/2=104
Z:Jack Campin * www.campin.me.uk * 2009
K:D
E|E/E/E TE2  E>FTB>A|E<E      E2       A>DA>F|\
  EE     E2  E>F`B>A|B>d``````A>d     TF>DA :|
d|B<E````B>A B>E`E>d|B<E``````B>A      F>DD>d|\
  B<E````B>A d>e`f>e|d/c/B/A/ dA       F>DD :|
f|e/e/e  e2  ef``bf |e/e/e    e2       fd`af |\
  e/e/e  e2  ef``bf |g>e``````b>e      f>da>f|
  ge`````be  ge``be |f/g/a    e>f      d>DA :|\
e|B<E```TB>A B>E`E>e|B<E`````TB>A      d>DDe |
  B<E````BA  B<E`BA |BE```````BA       d>DDe |\
  B<E````BA  d>e`f>e|d>B      d/B/A/G/ F>DD :|

